X: 181
T: Hanggua kaihua zao shangjia
%%abc-version 2.0
%%abcx-abcm2ps-target-version 5.9.1 (29 Sep 2008)
%%abc-creator hum2abc beta
%%abcx-conversion-date 2013/10/02 07:52:29
%%abc-edited-by Helmut Schaffrath
%%humdrum-veritas 1090807531
%%humdrum-veritas-data 3600261051
%%continueall 1
%%barnumbers 0
L: 1/8
M: 2/4
K: Bb
c'> d' c' d' [I:setbarnb 1]| 
c'> d' c' d' | 
b> b a c' | 
a gf2 | 
b> b a c' | 
a gf2 | 
b b/ c'/ d' d'/ c'/ | 
b b/ c'/ g f | 
d/ f/ d/ f/ d' c'/ d'/ | 
f4 | 
c'> d' c' d' | 
c'> d' c' d' | 
b> b a c' | 
a gf2 | 
b> b a c' | 
a gf2 | 
b> c' d' c' | 
b c' g f | 
b> d' c' d' | 
b c' g f | 
b> c' g f | 
b> d' c' d' | 
b c' g f | 
d/ f/ d/ f/ d' c'/ d'/ | 
f4 |]  



